X:1
T:Title
%%score [ 1 2 3 4 ]
L:1/8
Q:1/4=96
M:3/4
K:Emin
V:1 treble nm="S"
V:2 treble nm="A"
V:3 treble-8 nm="T"
V:4 bass nm="B"
V:1
!p! B4 G2 | F4 E2 | G4 A2 |!<(! B4!<)! B2 | B4 B2 |!>(! (g2 f2) e2!>)! | d4 c2 | B4 z2 |!p! B4 G2 | %9
w: Je- su,|vär- des|hos oss|bli- va,|Var vårt|ljus * i|mörk- rets|dal!|Vär- des|
 F4 E2 | G4 A2 |!<(! B4 B2!<)! | B4 B2 |!>(! (B2 c2) A2!>)! | c4 c2 | A4 z2 |!pp! G4 A2 | B4 A2 | %18
w: ur vårt|hjär- ta|dri- va|Syn- dens|nöd * och|ång- erns|kval,|Syn- dens|nöd och|
!>(! F4 G2!>)! | E4 z2 |!f! e4 e2 | B4 B2 | c4 c2 | B4 A2 |"^cresc." (^A2 B2) ^c2 | ^d4 d2 | %26
w: ång- erns|kval!|Från ditt|ord vi|ald- rig|vi- ke!|Kom- * me,|Gud, till|
 (^d2 B2) ^A2 | ^c4 ^A2 |!f! (^c2 ^A2) F2 | ^d4 d2 | (e2 ^G2) ^d2 |"^rit." ^c2!>(! B4!>)! || %32
w: oss * ditt|ri- ke!|Kom- * me,|Gud, till|oss * ditt|ri- ke!|
[K:E][M:4/4]!p! B2 G2 c2 G2 | c2 (dc) e2 G2 | B2 (AG) G2 E2 | F2 E2 G4 |!f! B2 G2 c2 G2 | %37
w: Låt oss se, när|mor- gon * flam- mar|Ö- ver * Sa- lems|höjd en gång,|Hö- ra hed- na-|
 e2 (dc) e2 B2 |!ff! e2 =cd !>!e3 c | !>!B2 !>!B2 !>!B4 |!p! G2 G2 ^A2 B2 | ^B>B cd d2 G2 | %42
w: folk och * stam- mar|Hö- ja * Guds och|Lam- mets sång!|Led oss, led oss,|mor- gon- stjär- na kla- ra,|
"^cresc." B2 B2 c2 =d2 | d>d ef f2 B2 |!f! c2 c2 d2 d2 | ee dc c2 B2 |!ff! A2 G2 d2 e2 | e4 z4 |] %48
w: Dit, där, dit, där|natt ej mer skall va- ra!|Led oss, led oss,|mor- gon- stjär- na kla- ra,|led oss, led oss|dit!|
V:2
!p! G2 F2 E2 | (E2 D2) E2 | E4 _E2 | D4 G2 | (G2 F2) A2 | G4 B2 | ^A4 =A2 | F4 z2 |!p! (G2 F2) E2 | %9
w: Je- * su,|vär- * des|hos oss|bli- va,|Var * vårt|ljus i|mörk- rets|dal!|Vär- * des|
 (E2 D2) E2 | E4 _E2 | D4 G2 | (G2 F2) A2 | A4 A2 | ^G4 G2 | A4 z2 |!pp! E4 E2 | E4 E2 | E2 ^D4 | %19
w: ur * vårt|hjär- ta|dri- va|Syn- * dens|nöd och|ång- erns|kval,|Syn- dens|nöd och|ång- erns|
 E4 z2 |!f! (E2 G2) A2 | (A2 G2) F2 | (E2 A2) G2 | (G2 E2) F2 | F4 F2 | (F2 ^A2) ^G2 | %26
w: kval!|Från * ditt|ord * vi|ald- * rig|vi- * ke!|Kom- me,|Gud, * till|
 (B2 ^E2) E2 | ^G4 F2 |!f! F4 F2 | ^^F4 F2 | (^G2 E2) E2 | E2 ^D4 ||[K:E][M:4/4]!p! E2 E2 E2 E2 | %33
w: oss * ditt|ri- ke!|Kom- me,|Gud, till|oss * ditt|ri- ke!|Låt oss se, när|
 E2 E2 E2 E2 | E2 E2 E2 E2 | E2 E2 E4 |!f! F2 E2 E2 E2 | E2 E2 G2 G2 |!ff! =G2 =cB !>!c2 BA | %39
w: mor- gon flam- mar|Ö- ver Sa- lems|höjd en gång,|Hö- ra hed- na-|folk och stam- mar|Hö- ja * Guds och *|
 !>!F2 !>!F2 !>!G4 |!p! G2 G2 F2 E2 | D>D C^B, B,2 C2 | B2 B2 A2 =G2 | F>F ED D2 D2 | %44
w: Lam- mets sång!|Led oss, led oss,|mor- gon- stjär- na kla- ra,|Dit, där, dit, där|natt ej mer skall va- ra!|
!f! E2 c2 c2 ^B2 | GA AA A2 A2 |!ff! A2 E2 E2 E[EF] | [EG]4 z4 |] %48
w: Led oss, led oss,|mor- gon- stjär- na kla- ra,|led oss, led oss *|dit!|
V:3
!p! z6 | B4 B2 | c4 c2 | d4 d2 | ^d4 d2 | e4 e2 | e4 e2 | ^d4 z2 |!p! z6 | B4 B2 | c4 c2 | d4 d2 | %12
w: |vär- des|hos oss|bli- va,|Var vårt|ljus i|mörk- rets|dal!||ur vårt|hjär- ta|dri- va|
 ^d4 d2 | ^d4 d2 | d4 d2 | c4 z2 |!pp! c4 c2 | c4 c2 | B4 A2 | G4 z2 |!f! c4 c2 | (B2 e2) d2 | %22
w: Syn- dens|nöd och|ång- erns|kval,|Syn- dens|nöd och|ång- erns|kval!|Från ditt|ord * vi|
 c4 c2 | c4 c2 | (^c2 ^G2) ^A2 | (^G2 f2) f2 | (^e2 ^d2) ^c2 | B4 ^A2 |!f! (^A2 ^c2) A2 | %29
w: ald- rig|vi- ke!|Kom- * me,|Gud, * till|oss * ditt|ri- ke!|Kom- * me,|
 (^A2 B2) A2 | ^c4 ^A2 | ^A2 (B3 =A) ||[K:E][M:4/4]!p! G2 B2 G2 c2 | c2 (BA) B2 c2 | c2 c2 B2 G2 | %35
w: Gud, * till|oss ditt|ri- ke! *|Låt oss se, när|mor- gon * flam- mar|Ö- ver Sa- lems|
 A2 =c2 B4 |!f! B2 B2 G2 c2 | c2 (BA) B2 B2 |!ff! =c2 e=f !>!e2 e2 | !>!e2 !>!d2 !>!e4 | %40
w: höjd en gång,|Hö- ra hed- na-|folk och * stam- mar|Hö- ja * Guds och|Lam- mets sång!|
!p! z4 G2 G2 | F>F EF F2 E2 | z4 B2 B2 | A>A GA A2 A2 |!f! A2 e2 f2 f2 | ec fe e2 d2 | %46
w: Led oss,|mor- gon- stjär- na kla- ra,|Dit, där|natt ej mer skall va- ra!|Led oss, led oss,|mor- gon- stjär- na kla- ra,|
!ff! e2 c2 e2 c2 | B4 z4 |] %48
w: led oss, led oss|dit!|
V:4
!p! z6 | B,4 G,2 | C,4 C2 | G,4 G,2 | A,4 F,2 | E,4 G,2 | F,4 F,2 | B,4 z2 |!p! z6 | B,4 G,2 | %10
w: |vär- des|hos oss|bli- va,|Var vårt|ljus i|mörk- rets|dal!||ur vårt|
 C,4 C2 | G,4 G,2 | A,4 F,2 | =F,4 F,2 | E,4 E,2 | A,4 z2 |!pp! (C2 B,2) A,2 | G,4 F,2 | B,4 B,,2 | %19
w: hjär- ta|dri- va|Syn- dens|nöd och|ång- erns|kval,|Syn- * dens|nöd och|ång- erns|
 E,4 z2 |!f! (C,2 E,2) F,2 | G,4 G,2 | A,4 A,2 | D,4 D,2 | ^C,4 C,2 | ^B,,4 B,,2 | ^C,4 C,2 | %27
w: kval!|Från * ditt|ord vi|ald- rig|vi- ke!|Kom- me,|Gud, till|oss ditt|
 ^E,4 F,2 |!f! E,4 E,2 | ^D,4 D,2 | ^C,4 F,2 | B,,2 B,,4 ||[K:E][M:4/4]!p! E,3 D, C,3 B,, | %33
w: ri- ke!|Kom- me,|Gud, till|oss ditt|ri- ke!|Låt oss se, när|
 A,,2 A,2 G,2 C,2 | F,2 F,2 B,,2 C,2 | =C,2 A,2 E,4 |!f! D,2 (E,D,) C,3 B,, | A,,2 A,2 E,2 E,2 | %38
w: mor- gon flam- mar|Ö- ver Sa- lems|höjd en gång,|Hö- ra * hed- na-|folk och stam- mar|
!ff! =C,2 =C2 !>!A,2 A,2 | !>!B,2 !>!B,2 !>!E,4 |!p! z8 | G,,2 G,,2 G,,2 C,2 | z8 | %43
w: Hö- ja Guds och|Lam- mets sång!||Stjär- na kl- ra,||
 B,,2 B,,2 B,,2 B,,2 |!f! A,,2 A,2 G,2 G,2 | CF, F,F, B,,2 B,,2 |!ff! C,2 C2 A,2 A,2 | E,4 z4 |] %48
w: Stjär- na kl- ra!|Led oss, led oss,|mor- gon- stjär- na kla- ra,|led oss, led oss|dit!|

